X:2
T:Dumaj zlate le dumaj
O:Macedoine de l'est
M:2/4
L:1/8
K:F
|: c4 | {c} d3 c | c4 | Bc BA | A4 | A4 |
{A} B2 B2 | Bc cB | c4 | Bc BA | A4 | A4 |
c4 | {c} d3 c | c4 | Bc BA | A4 | A4 |
{A} B2 B2 | Bc cB | {B} c2 c2 | cd dc |
d2 d2 | cd cB | c4 | Bc BA | A4 A4 :|
W:Dumaj zlate le dumaj
W:Lele dumaj na majkati
W:Mama ne me le davat (ou zlate)
